static/fa/svgs/regular/face-kiss-wink-heart.svg

<svg xmlns="http://www.w3.org/2000/svg" viewBox="0 0 512 512"><!--! Font Awesome Free 6.1.1 by @fontawesome - https://fontawesome.com License - https://fontawesome.com/license/free (Icons: CC BY 4.0, Fonts: SIL OFL 1.1, Code: MIT License) Copyright 2022 Fonticons, Inc.--><path d="M345.3 472.1c2 7.6 5.6 14.3 10.4 19.7-30.6 13-64.3 20.2-99.7 20.2C114.6 512 0 397.4 0 256S114.6 0 256 0s256 114.6 256 256c0 29.3-4.9 57.4-14 83.7-11.1-5.6-23.5-6.6-36.2-5.1-2.1-5.2-4.8-10-7.9-14.5 6.6-20.2 10.1-41.7 10.1-64.1 0-114.9-93.1-208-208-208S48 141.1 48 256s93.1 208 208 208c29.4 0 57.5-6.1 82.9-17.2l6.4 25.3zm-56.6-137.8c-4.3 5.2-10.2 9.7-16.8 13.4-2.7 1.6-5.6 3-8.7 4.3 3.1 1.3 6 2.7 8.7 4.3 6.6 2.8 12.5 8.2 16.8 13.4 4.2 5.1 7.3 11.4 7.3 18.3s-3.1 13.2-7.3 18.3c-4.3 5.2-10.2 9.7-16.8 13.4-13.2 7.4-30.5 12.3-47.9 12.3-3.6 0-6.8-2.5-7.7-6-1-3.5.6-7.2 3.8-9l.2-.1c.2-.1.5-.3.9-.6.8-.4 2-1.2 3.4-2.1 2.8-1.8 6.6-4.5 10.2-7.6 3.8-3.1 7.2-6.6 9.7-10 1.6-3.6 3.5-6.4 3.5-8.6 0-2.2-1.9-5.9-3.5-8.6-2.5-4.3-5.9-6.9-9.7-10-3.6-3.1-7.4-5.8-10.2-7.6-1.4-.9-2.6-1.7-3.4-2.1-.4-.3-.7-.5-.9-.6l-.2-1c-2.5-.5-4.1-3.2-4.1-6.1 0-2.9 1.6-5.6 4.1-7l.2-.1c.2-.1.5-.3.9-.6.8-.4 2-1.2 3.4-2.1 2.8-1.8 6.6-4.5 10.2-7.6 3.8-3.1 7.2-6.5 9.7-10 1.6-3.6 3.5-6.4 3.5-8.6 0-2.2-1.9-5.9-3.5-8.6-2.5-4.3-5.9-6.9-9.7-10-3.6-3.1-7.4-5.8-10.2-7.6-1.4-.9-2.6-1.7-3.4-2.1-.4-.3-.7-.5-.9-.6l-.2-1c-3.2-.9-4.8-4.6-3.8-9 .9-2.6 4.1-5.1 7.7-5.1 17.4 0 34.7 4.9 47.9 12.3 6.6 2.8 12.5 8.2 16.8 13.4 4.2 5.1 7.3 11.4 7.3 18.3s-3.1 13.2-7.3 18.3zM144.4 208c0-17.7 14.3-32 32-32 17.6 0 32 14.3 32 32s-14.4 32-32 32c-17.7 0-32-14.3-32-32zm191.2 12c-11.5 0-19.9 3.8-25.4 9.7-7.5 8-20.2 8.4-28.3.9-8-7.6-8.4-20.2-.9-28.3 14.6-15.5 35.3-22.3 54.6-22.3 18.5 0 40.1 6.8 54.6 22.3 7.6 8.1 7.2 20.7-.9 28.3-8.1 7.5-20.7 7.1-28.3-.9-5.4-5.9-14.7-9.7-25.4-9.7zm103.8 153.3 20.1-5.7c22.2-6.2 45.1 7.6 51.1 30.8 5.9 23.3-7.3 47.2-29.5 53.4l-85 23.8c-8.6 2.4-17.5-2.7-19.8-11.4l-22.9-89.3c-5.9-23.3 7.3-47.2 29.5-53.4 22.3-6.2 45.1 7.6 50.2 30.8l6.3 21z"/></svg>

<svg xmlns="http://www.w3.org/2000/svg" viewBox="0 0 512 512"><!--! Font Awesome Free 6.1.1 by @fontawesome - https://fontawesome.com License - https://fontawesome.com/license/free (Icons: CC BY 4.0, Fonts: SIL OFL 1.1, Code: MIT License) Copyright 2022 Fonticons, Inc. --><path d="M345.3 472.1C347.3 479.7 350.9 486.4 355.7 491.8C325.1 504.8 291.4 512 256 512C114.6 512 0 397.4 0 256C0 114.6 114.6 0 256 0C397.4 0 512 114.6 512 256C512 285.3 507.1 313.4 498 339.7C486.9 334.1 474.5 333.1 461.8 334.6C459.7 329.4 457 324.6 453.9 320.1C460.5 299.9 464 278.4 464 256C464 141.1 370.9 48 256 48C141.1 48 48 141.1 48 256C48 370.9 141.1 464 256 464C285.4 464 313.5 457.9 338.9 446.8L345.3 472.1zM288.7 334.3C284.4 339.5 278.5 344 271.9 347.7C269.2 349.3 266.3 350.7 263.2 352C266.3 353.3 269.2 354.7 271.9 356.3C278.5 359.1 284.4 364.5 288.7 369.7C292.9 374.8 296 381.1 296 388C296 394.9 292.9 401.2 288.7 406.3C284.4 411.5 278.5 416 271.9 419.7C258.7 427.1 241.4 432 224 432C220.4 432 217.2 429.5 216.3 426C215.3 422.5 216.9 418.8 220.1 417L220.1 417L220.3 416.9C220.5 416.8 220.8 416.6 221.2 416.3C222 415.9 223.2 415.1 224.6 414.2C227.4 412.4 231.2 409.7 234.8 406.6C238.6 403.5 242 400 244.5 396.6C246.1 393 248 390.2 248 388C248 385.8 246.1 382.1 244.5 379.4C242 375.1 238.6 372.5 234.8 369.4C231.2 366.3 227.4 363.6 224.6 361.8C223.2 360.9 222 360.1 221.2 359.7C220.8 359.4 220.5 359.2 220.3 359.1L220.1 358.1L220.1 358.1C217.6 357.6 216 354.9 216 352C216 349.1 217.6 346.4 220.1 345L220.1 345L220.3 344.9C220.5 344.8 220.8 344.6 221.2 344.3C222 343.9 223.2 343.1 224.6 342.2C227.4 340.4 231.2 337.7 234.8 334.6C238.6 331.5 242 328.1 244.5 324.6C246.1 321 248 318.2 248 316C248 313.8 246.1 310.1 244.5 307.4C242 303.1 238.6 300.5 234.8 297.4C231.2 294.3 227.4 291.6 224.6 289.8C223.2 288.9 222 288.1 221.2 287.7C220.8 287.4 220.5 287.2 220.3 287.1L220.1 286.1L220.1 286.1C216.9 285.2 215.3 281.5 216.3 277.1C217.2 274.5 220.4 272 224 272C241.4 272 258.7 276.9 271.9 284.3C278.5 287.1 284.4 292.5 288.7 297.7C292.9 302.8 296 309.1 296 316C296 322.9 292.9 329.2 288.7 334.3V334.3zM144.4 208C144.4 190.3 158.7 176 176.4 176C194 176 208.4 190.3 208.4 208C208.4 225.7 194 240 176.4 240C158.7 240 144.4 225.7 144.4 208zM335.6 220C324.1 220 315.7 223.8 310.2 229.7C302.7 237.7 290 238.1 281.9 230.6C273.9 223 273.5 210.4 281 202.3C295.6 186.8 316.3 180 335.6 180C354.1 180 375.7 186.8 390.2 202.3C397.8 210.4 397.4 223 389.3 230.6C381.2 238.1 368.6 237.7 361 229.7C355.6 223.8 346.3 220 335.6 220zM439.4 373.3L459.5 367.6C481.7 361.4 504.6 375.2 510.6 398.4C516.5 421.7 503.3 445.6 481.1 451.8L396.1 475.6C387.5 478 378.6 472.9 376.3 464.2L353.4 374.9C347.5 351.6 360.7 327.7 382.9 321.5C405.2 315.3 428 329.1 433.1 352.3L439.4 373.3z"/></svg>
